!!!OTL: KOMMT EIN VOGERL GEFLOGEN
!!!ARE: Europa, Mitteleuropa, Deutschland
!!!SCT: F1120
!!!YEM: Copyright 1995, estate of Helmut Schaffrath.
**kern
*ICvox
*Ivox
*M3/4
*k[f#c#g#]
*A:
{8cc#
8dd
=1
4ee
4cc#
4cc#
=2
4cc#
4b}
{8b
8cc#
=3
4dd
4b
4b
=4
4cc#
4r}
{8cc#
8dd
=5
4ee
4cc#
4cc#
=6
4cc#
4b}
{8b
8cc#
=7
4dd
4g#
4g#
=8
4a
4r}
==
!!!AGN: Liebes - Lied, Trennung, Heimweh
!!!ONB: ESAC (Essen Associative Code) Database: FINK
!!!AMT: simple triple
!!!AIN: vox
!!!EED: Helmut Schaffrath
!!!EEV: 1.0
*-
